X: 34978
T: Roddy McDonald's Fancy
R: reel
M: 4/4
K: Amajor
af|:ecBd cAAB|c2cB ceaf|ecBd cAAB|cffe f2af:|
ecef a/a/aaf|ecBc ecaf|ecef afec|Bffe f2af|
ecef a/a/aaf|ecBc ecaf|ecBd cAAB|cffe f2ec||
|:B2Bc A3B|c2cB ceaf|ecBd cAAB|1 cffe f2ec:|2 cffe f2ef||
a2ef aefa|efae faef|a2ef afec|Bffe f2ef|
a2ba f2af|e2fe c2af|ecBd cAAB|cffe f2af||

